X: 934
T: Stoney Lonesome
C:Bill Monroe
B: jims roots
M:C|
L:1/8
Q: 1/4=100
K:A
V:1 
"A" ea2 ea3e | =gege aged | ea2 e =gaga | e=ged cA-A2|
ea2 ea3e | =gege agef | =g (3fgf e2d2 | "E"cAcd "A"ecA2:|
|:Acdc A4 | edce dcAF |"G"=GFGF EDEF | =GBGF E4|
Acdc A4 | edce dcef | =g2f2e2d2 |"E"cAcd ec "A"A2:|
% abcbook-tune_id 6298c2874670955c79470baa


% abcbook-boost 0
% abcbook-tablature 
% abcbook-transpose 
% abcbook-lastupdated 1654178440952
% abcbook-soundfonts 
% abcbook-repeats 1


